X:1
T:Title
%%score { ( 1 3 4 ) | ( 2 5 ) }
L:1/8
M:4/4
K:Bb
V:1 treble nm="Grand Piano"
V:3 treble 
V:4 treble 
V:2 bass 
V:5 bass 
V:1
 z4 z2[Q:1/4=100] F2 | B2 B2 BAGA | D2 D4 F2 | z4 [Fc]2 z2 | [Fd]6 d2 | e4 z4 | B4 z4 | %7
 c2 B2 A2 [B,=EG]2 | [CF]6 z2 | B2 B2 BAGA | D2 D4 F2 | [Ad]2 [^Fd]2 [Gd]2 [Ac]2 | %12
 B2- [B,DFB-]2 [B,EB]2 [D_AB]2 | c2 z2 z4 | E4 [Bf]2 [GBe]2 | [FBd]2 [=EBd]2 d2 z2 | %16
[M:3/4] [DFB]6 |[M:1/4][K:bass] F,2 |[M:4/4] z[K:treble] e z e z e z e | z f/f/ ff ffdd | %20
 A,[FAce] z [FAce] z [FAce] z [FAce] | z d/d/ dd dd [DF]2 | [EG]2 [FA]2 [FB]2 [Fc]2 | %23
 [Fd]2 [_Af]2 [Ge]2 [Gc]2 | B2 B2 B2 A2 |[M:3/4] [DB]6 |] %26
V:2
 z4 z2 F,2 | B,2 B,2 B,A,G,A, | D,2 D,4 F,E, | D,2 B,,2 A,,F,,G,,A,, | %4
 B,,2 D,2 F,2[K:treble] [B,F]2 | [CF]4 [D^F]2 [^F,D]2 | [B,-DG]4 [G,B,DG]2 [_A,=B,F]2 | %7
 F2- [B,DF-]2 [CF]2[K:bass] C,2 | z2 A,4 z2 | B,,C,D,F, B,A,G,A, | D,2 D,4 F,2 | %11
 [^F,D]2 z2 [=E,D]2 z2 | [G,,G,]2 [A,,_A,]2 [G,,G,]2 [G,,F,]2 | z2[K:treble] B2 A2 G2 | %14
 z2[K:treble] B2 F2[K:bass] [E,,E,]2 | [F,,F,]2 [G,,G,]2 z2[K:treble] c2 | %16
[M:3/4][K:bass] B,,2 F,2 B,,2 |[M:1/4] z2 |[M:4/4] z[K:treble] [FAc] z [FAc] z [FAc] z [FAc] | %19
 z [FBd]/[FBd]/ [FBd][FBd] [FB][FB][FB][FB] | z[K:bass] G,F,G, A,F,G,A, | %21
 z[K:treble] [FB]/[FB]/ [FB][FB] [FB][FB][K:bass] [B,,B,]2 | [E,B,]2 [E,C]2 [D,B,]2 [F,A,]2 | %23
 B,4 z4 | [F,DF]2 [F,_D=E]2 [F,C_E]2 [F,CE]2 |[M:3/4] [B,,B,]6 |] %26
V:3
 x8 | x8 | x8 | [B,FB]2 [B,DFB]2 E2- [EF]2 | x8 | z2 z e d2 c2 | z2 D,2 B2 d2 | x8 | A,2 z2 z2 F2 | %9
 x8 | x8 | x8 | x8 | [EG]4 z4 | F2 z2 z4 | B,4 [_EFA]4 |[M:3/4] x6 |[M:1/4][K:bass] x2 | %18
[M:4/4] F,2[K:treble] A,2 C2 F,2 | D2 z2 z4 | x8 | B,6 z2 | x8 | x8 | x8 |[M:3/4] x6 |] %26
V:4
 x8 | x8 | x8 | x8 | x8 | z2 F,2 z4 | x8 | x8 | x8 | x8 | x8 | x8 | [B,DG]2 z2 z2 B,2- | B,8- | %14
 B,8 | x8 |[M:3/4] x6 |[M:1/4][K:bass] x2 |[M:4/4] x[K:treble] x7 | x8 | x8 | x8 | x8 | x8 | x8 | %25
[M:3/4] x6 |] %26
V:5
 x8 | x8 | x8 | x8 | x6[K:treble] x2 | A,2 z2 A,4 | G,2 z2 z4 | [A,C]2 z2 z4[K:bass] | %8
 F,G, z G, F,E,D,C, | x8 | x8 | A,2- [D,A,D]2 A,2- [^F,A,D]2 | x8 | [E,,E,]8[K:treble] | %14
 [D,,D,]6[K:treble][K:bass] z2 | z4 [F,,F,]4[K:treble] |[M:3/4][K:bass] x6 |[M:1/4] x2 | %18
[M:4/4] x[K:treble] x7 | z2 D4 B,2 | x[K:bass] x7 | x[K:treble] x5[K:bass] x2 | x8 | %23
 B,,2 D,2 [E,B,]2 [E,E]2 | x8 |[M:3/4] x6 |] %26

